X:1
T:Recuerdos de la Luna
T:Un arreglo sencillo de “Recuerdos de la Alhambra” por Francisco Tárrega en homenaje a “Claro de Luna” por Beethoven
T:Arreglo: Jeffrey Olson
T:Dedos: Dennis Burns
T:by Mutopia-2017/10/29-2201
T:by Mutopia-2017/10/29-2201
Z:by Mutopia-2017/10/29-2201
L:1/8
Q:1/4=64
M:3/4
K:C
V:1 treble-8 nm="Classical Guitar"
V:1
"^I" (3!0!e"_laissez vibrer..."!3!A!2!c (3ecA"^II" (3!2!d!3!B!1!E | %1
"^I" (3!2!A!4!E!3!A (3cAE"^II" (3!2!d!3!B!1!E |"^I" (3!0!e!2!E!3!A (3e!1!cA (3ecA | %3
 (3eAc (3ecA (3!1!f!4!d!0!G |"^III" (3!1!g!3!c!4!e (3ge!0!G"^I" (3!1!f!4!dG | %5
 (3eG!1!c (3ecG (3!1!f!4!dG |"^III" (3!1!g!2!G!3!c (3g!4!eG (3geG | (3gGc (3geG (3ge!0!G | %8
"^VIII" (3!1!c'!2!c!3!f (3c'!4!ac"^V" (3!3!b!4!g!1!c |"^b_V" (3!1!a!1!c!2!f (3afc (3!4!b!3!df | %10
 (3!1!a!4!b!2!a"^b_IV" (3!1!^g!1!B!2!e (3aeB | (3!1!^g!4!d!2!e (3ged (3ged | %12
 (3!4!_b!3!^c!2!e (3bec (3!1!aed |"^b_II" (3!2!g!1!A!1!^c (3g!4!eA"^IV" (3!2!a!3!f!4!A | %14
"^III" (3!1!g!4!a!2!g"^I" (3!1!f!2!A!4!d (3fdA | (3fAd (3fdA (3fdA | %16
"^V" (3!0!e!3!A!0!B (3eBA (3!4!dBA |"^I" (3!1!c!3!F!2!A (3cAF (3!4!dAF | %18
 (3!1!c!4!d!1!c (3!0!B!2!E!1!^G (3BGE | (3BE^G (3BGE (3BGE || %20
[K:A] (3!0!e!1!A!2!c (3ecA"^II" (3!2!d!3!B!1!E |"^b_II" (3!1!c!1!E!1!d (3cAE (3!2!d!3!B!1!E | %22
"^I" (3!0!e!1!E!2!A (3e!3!cA (3ecA | (3eAc (3ecA (3ecA |"^b_VII" (3!1!f!1!A!1!d (3fdA (3fdA | %25
"^b_X" (3!1!d'!2!f!1!a (3d'!3!bf"^b_VII" (3!1!f!3!B!1!d | (3!1!f!4!g!2!f"^V" (3!1!e!3!A!2!c (3ecA | %27
 (3eAc (3ecA (3ecA |"^b_V" (3!1!a!3!A!2!c (3a!4!fc (3afc | %29
"^b_IV" (3!1!g!3!G!2!^B (3gBG (3!1!!1!^dGB |"^V" (3!4!f!2!G!3!c (3!1!eGc (3ecG | %31
 (3eGc (3ecG (3ecG |"^III" (3!2!d!1!=F!3!B (3dBF (3dB!1!E | %33
"^b_II" (3!1!c!1!E!1!A (3cAE"^I" (3!0!B!0!D!1!G | (3!0!B!3!c!0!B (3!2!c!1!EA (3!4!FA!1!G | %35
"^b_II" (3!1!A!4!C!1!E (3AEC (3AEC || (3A!4!D!2!=F (3AFD (3AFD | %37
"^I" (3!0!B!3!=F!2!A (3!1!=cFA (3!4!dFA |"^V" (3!1!e!3!A!2!c (3ecA (3ecA | (3eAc (3ecA (3ecA | %40
 (3e!3!E!2!G (3eGE (3eGE |"^III" (3!1!d!3!D!2!F"^b_II" (3!1!c!1!E!1!A (3!0!B!0!D!1!G | %42
"^b_II" (3!1!A!3!C!1!E (3AE!2!^E (3A!3!F!2!E |"^b_II" (3AC=E (3AEC (3AEC | (3AD=F (3AFD (3AFD | %45
"^I" (3B=FA (3=cFA (3dFA | (3!0!e!2!A!3!c (3ecA (3ecA | (3eAc (3ecA (3ecA | %48
 (3!4!g!2!E!1!G (3gEG (3gEG | (3!3!f!2!E!1!G (3!0!eE!3!c"^b_II" (3!3!d!1!E!4!B | %50
 (3!1!A!1!E!1!c (3AEc (3AE!3!F | (3!1!A!1!E!1!c (3AEc (3E!4!^Bc | (3!1!A!1!E!1!c (3AEc (3E!3!^Bc | %53
 !4!a6 | !1![Ec]6 | !0!!1![A,A]6 |] %56

